X: 4
T: BY THE LIGHT OF THE SILVERY MOON
C: Edwards (1909)
M: C
L: 1/8
K: A
C2 D2 | "A"E8 | z2 AB cB A2 | "B7"F8 | z2 B2 A2 F2 |
"E7"G8 | z2 EF GF E2 | "A"F4 "B,7/D#"C4 | "E7"E4 C2 D2 |
"A"E8 | z2 AB cB A2 | "D"F4- "F#7"F4 | "Bm"z2 B2 "E7"c2 d2 | "A"c2 A2 "B7"B2 "Dm"d2 |
"F#m"c2 AB cB A2 | "C#7"c4- "F#7"c4 | "B7"z2 AB "E7"cA B2 | "A"A4- "D"A4- | "A"A2 z2 |]
